X:1
T:Jeering Song
T:Jeering Song
T:XVIII from For Children, Vol 2, Sz. 42
T:Béla Bartók
T:Public Domain (PianoXML typeset)
T:Public Domain (PianoXML typeset)
C:Béla Bartók
Z:Public Domain (PianoXML typeset)
%%score { ( 1 3 ) | 2 }
L:1/8
Q:1/4=80
M:2/4
K:C
V:1 treble nm="Piano" snm="Pno."
V:3 treble 
V:2 bass 
V:1
"^Sostenuto"!<(! E/^F/^G/^A/!<)!!f! B2- |!>(! B2 B2- | B2 B2- | B2 B2-!>)! |!mf! B.[E^GB]z.[EGB] | %5
 z .[E^GB]z.[EGB] | z .[^DAB]z.[DAB] | z .[E^GB]z.[EGB] |!<(! z .[^DAB]z.[DAB] | %9
 z !tenuto![E^GB]2!<)! z | z .[^DAB]z.[DAB] | z .[E^GB]z.[EGB] | z .[^DAB]z.[^FAB] | %13
 z .[E^GB]z.[EGB] |!<(! z .[^DAB]z.[DAB] | z !^![E^GB]2!<)! z |!mf! !tenuto!^f2 .f.^g | %17
 .^f.e !tenuto!^d2 | .e.^d !tenuto!^c2 | .B.^d !tenuto!^f2 |!<(! .e.^d !tenuto!^c2 | !^!B3!<)! z | %22
!mp! .e.^d !tenuto!^c2 | .B.^d !tenuto!^f2 | .e.^d(^c^A) | .B.^d"_cresc." !tenuto!^f2 | %26
 .e.^d !tenuto!^c2 |!f! !^!B3 z |!p! z .[GBd]z.[GBd] | z .[GBd]z.[GBd] | z .[^DAB]z.[DAB] | %31
 z .[GBd]z.[GBd] |"_sempre" z .[^DAB]!p!z.[DAB] | z !tenuto![GBd]2 z | %34
!mp! z"_riten."!>(! (^c!>)!B) !tenuto![^DAB] | z"_accel." .[E^GB]z.[EGB] | z .[^DAB]z.[^FAB] | %37
"_cresc." z .[E^GB]z.[EGB] |"^a tempo" z .[^DAB]z.[DAB] | z!f! !tenuto![E^GB]2 z |] %40
V:2
 z4 | z4 | z4 | z4 | !tenuto!B,2 .B,.^C | .B,.A, !tenuto!^G,2 | .A,.^G, !tenuto!^F,2 | %7
 .E,.^G, !tenuto!B,2 | .A,.^G, !tenuto!^F,2 | !^!E,3 z | .A,.^G, !tenuto!^F,2 | %11
 .E,.^G, !tenuto!B,2 | .A,.^G,!>!^F,^D, | .E,.^G, !tenuto!B,2 | .A,.^G, !tenuto!^F,2 | !^!E,3 z | %16
 z .[B,,^F,]z.[B,,F,] | z .[B,,^F,]z.[B,,F,] | z .[B,,E,^F,]z.[B,,E,F,] | %19
 z .[B,,^D,^F,]z.[B,,D,F,] | z .[B,,E,^F,]z.[B,,E,F,] | z !^![B,,^D,^F,]2 z | %22
 z .[^G,B,E][G,B,E] z | z .[^F,B,^D]z.[F,B,D] | z .[=G,B,E]z.[G,B,E] | z .[^F,B,^D]z.[F,B,D] | %26
 z .[^F,^G,E]z.[F,G,E] | z !^![B,^D]2 z | =D2 .D.E | .D.C !tenuto!B,2 | .C.B, !tenuto!A,2 | %31
 .G,.B, !tenuto!D2 | .C.B, !tenuto!A,2 | G,3 z | .A,,.^G,, !tenuto!^F,,2 | E,,^G,, !tenuto!B,,2 | %36
 .A,,.^G,,(.^F,,.^D,,) | .E,,.^G,, !tenuto!B,,2 | .A,,.^G,, !tenuto!^F,,2 | !tenuto!E,,3 z |] %40
V:3
 x4 | x4 | x4 | x4 | x4 | x4 | x4 | x4 | x4 | x4 | x4 | x4 | x4 | x4 | x4 | x4 | x4 | x4 | x4 | %19
 x4 | x4 | x4 | x4 | x4 | x4 | x4 | x4 | x4 | x4 | x4 | x4 | x4 | x4 | x4 | x [^DA]2 x | x4 | x4 | %37
 x4 | x4 | x4 |] %40

